X: 8
T: Karl XII:s vals efter G\aas-Anders
S: efter G\aas-Anders
O: Uppland
B: Melodier fr\aan Upplands bruk och Fyris bygder h\"afte 2, nr. 28
R: Vals
Z: Nils
M: 3/4
L: 1/8
K: G
d |\
[gB]f ga bg | d2 BG Bd | cB Ad fa | ga bg dB |\
   gf ga bg | d2 BG Bd | cB Ad fa | [g4B4]!fine! z |]
|: B |\
dB GB dB | cA FA cA | BG EG cB | AG FE D2 |\
BG EG cB | AG FA ed | {d}cB cD FA | G4 zB :|
|: D |\
D2 {c}BA B2 | BG GD [E2C2]- | [E2C2]{d}cB c2 | cB AG FE |\
D2 {c}BA Bc | d2 dB dg | e2 e^c ef | d4 z :|
